src/assets/svg/award.svg

<svg width="35" height="42" viewBox="0 0 35 42" fill="none" xmlns="http://www.w3.org/2000/svg">
<g clip-path="url(#clip0)">
<path d="M34.6968 36.4871L30.2904 30.8222C31.7183 30.3956 32.9517 29.4825 33.7764 28.2414C34.8141 26.4477 34.3449 24.2586 33.8909 22.1441C33.6163 21.0579 33.452 19.9467 33.4006 18.8276C33.4519 17.7074 33.616 16.5952 33.8909 15.5081C34.342 13.3922 34.8141 11.2046 33.7764 9.41379C32.7018 7.5571 30.5381 6.8699 28.4453 6.20659C27.4036 5.91956 26.3947 5.52445 25.4351 5.02769C24.5643 4.46286 23.7558 3.80752 23.023 3.07252C21.4704 1.63148 19.7101 0 17.4696 0C15.2291 0 13.4687 1.63148 11.9154 3.07179C11.1829 3.80697 10.3746 4.46259 9.50406 5.02769C8.54458 5.52345 7.53595 5.91756 6.49455 6.20369C4.40179 6.867 2.23806 7.55421 1.16344 9.4109C0.125754 11.2046 0.594995 13.3937 1.04903 15.5081C1.32357 16.5953 1.48759 17.7074 1.53855 18.8276C1.48731 19.9477 1.32312 21.0599 1.04831 22.147C0.597168 24.263 0.12503 26.4506 1.16272 28.2414C1.9886 29.4829 3.22334 30.3958 4.65234 30.8215L0.24234 36.4864C-0.00314264 36.8021 0.0537925 37.2571 0.369607 37.5026C0.521314 37.6205 0.713573 37.6733 0.904202 37.6494L6.08179 37.0027L7.35989 41.475C7.43475 41.7371 7.65054 41.935 7.9182 41.987C7.96355 41.9956 8.00962 42 8.05579 42C8.27937 42.0002 8.49054 41.897 8.62786 41.7205L13.2522 35.7724C14.3902 36.8803 15.885 37.5476 17.4696 37.6552C19.0542 37.5476 20.549 36.8803 21.687 35.7724L26.3113 41.7183C26.4482 41.8956 26.6593 41.9996 26.8834 42C26.9295 42 26.9756 41.9956 27.021 41.987C27.2886 41.935 27.5044 41.7371 27.5793 41.475L28.8574 37.0034L34.035 37.6501C34.4318 37.6999 34.7939 37.4186 34.8436 37.0217C34.8675 36.8311 34.8148 36.6388 34.6968 36.4871ZM8.35993 39.7052L7.30341 36.0078C7.2052 35.6648 6.87173 35.4445 6.51772 35.4885L2.46255 35.9954L6.097 31.3233L6.49744 31.4515C7.53785 31.7378 8.54549 32.1319 9.50406 32.6275C10.3748 33.1923 11.1833 33.8477 11.9162 34.5827L12.1653 34.8129L8.35993 39.7052ZM17.4696 36.2069C15.7968 36.2069 14.3898 34.9034 12.8995 33.5218C12.0888 32.7118 11.1932 31.9915 10.2282 31.3733C9.17829 30.8237 8.07308 30.3867 6.9312 30.0698C5.01731 29.4623 3.20913 28.8888 2.41548 27.5172C1.65803 26.2073 2.04906 24.3817 2.464 22.4483C2.76261 21.2626 2.93785 20.0493 2.98682 18.8276C2.93812 17.6059 2.76315 16.3926 2.46472 15.2069C2.04979 13.2742 1.65875 11.4486 2.4162 10.1379C3.21275 8.76641 5.01803 8.1929 6.93193 7.58534C8.07362 7.26835 9.17847 6.83143 10.2282 6.2819C11.1929 5.66366 12.0883 4.94333 12.8988 4.13338C14.3898 2.75172 15.7968 1.44828 17.4696 1.44828C19.1423 1.44828 20.5493 2.75172 22.0396 4.13338C22.8504 4.94342 23.746 5.66366 24.711 6.2819C25.7609 6.83152 26.8661 7.26844 28.008 7.58534C29.9219 8.1929 31.73 8.76641 32.5237 10.1379C33.2811 11.4479 32.8901 13.2734 32.4752 15.2069C32.1766 16.3926 32.0013 17.6059 31.9523 18.8276C32.001 20.0493 32.176 21.2626 32.4744 22.4483C32.8894 24.381 33.2804 26.2066 32.523 27.5172C31.7264 28.8888 29.9211 29.4623 28.0072 30.0698C26.8655 30.3868 25.7607 30.8237 24.711 31.3733C23.7462 31.9915 22.8508 32.7118 22.0403 33.5218C20.5493 34.9034 19.1423 36.2069 17.4696 36.2069ZM28.4251 35.4885C28.0711 35.4445 27.7376 35.6648 27.6394 36.0078L26.5792 39.7052L22.7746 34.8137L23.0237 34.5834C23.7563 33.8482 24.5646 33.1926 25.4351 32.6275C26.3946 32.1317 27.4032 31.7376 28.4446 31.4515L28.8451 31.3233L32.4802 35.9954L28.4251 35.4885Z" fill="black"/>
<path d="M17.47 5.79309C10.2713 5.79309 4.43555 11.6288 4.43555 18.8276C4.43555 26.0263 10.2713 31.8621 17.47 31.8621C24.6688 31.8621 30.5045 26.0263 30.5045 18.8276C30.4962 11.6323 24.6653 5.80151 17.47 5.79309ZM17.47 30.4138C11.0712 30.4138 5.88382 25.2264 5.88382 18.8276C5.88382 12.4287 11.0712 7.24137 17.47 7.24137C23.8689 7.24137 29.0562 12.4287 29.0562 18.8276C29.0486 25.2233 23.8658 30.4062 17.47 30.4138Z" fill="black"/>
<path d="M25.8249 15.8028C25.5525 15.4285 25.1176 15.207 24.6547 15.2068H20.2216L18.8457 10.9873C18.596 10.2274 17.7775 9.81391 17.0176 10.0636C16.5805 10.2073 16.2376 10.5502 16.094 10.9873L14.7217 15.2068H10.2849C9.48504 15.2065 8.8363 15.8545 8.83594 16.6544C8.83567 17.1178 9.05725 17.5533 9.4319 17.826L13.0207 20.4329L11.6499 24.6525C11.4026 25.4132 11.8189 26.2303 12.5795 26.4775C13.0206 26.6209 13.5036 26.5443 13.8788 26.2716L17.4698 23.6655L21.0594 26.2724C21.565 26.648 22.2569 26.648 22.7626 26.2724C23.2757 25.9077 23.4893 25.2498 23.2883 24.6532L21.9175 20.4329L25.5063 17.826C26.1531 17.3553 26.2957 16.4494 25.8249 15.8028ZM20.6401 19.5712C20.3861 19.7558 20.2799 20.083 20.3772 20.3815L21.911 25.1014L17.8956 22.1846C17.6419 22.0004 17.2985 22.0004 17.0448 22.1846L13.0294 25.1014L14.5624 20.3815C14.6594 20.0832 14.5533 19.7564 14.2996 19.5719L10.2849 16.6551H15.2475C15.5612 16.6551 15.8392 16.4531 15.9361 16.1547L17.4698 11.4348L19.0036 16.154C19.1005 16.4523 19.3785 16.6544 19.6922 16.6544L24.6547 16.6551L20.6401 19.5712Z" fill="#E10303"/>
</g>
<defs>
<clipPath id="clip0">
<rect width="34.9397" height="42" fill="white"/>
</clipPath>
</defs>
</svg>

<svg width="35" height="42" fill="none" xmlns="http://www.w3.org/2000/svg">
  <g clip-path="url(#prefix__clip0)">
    <path
      d="M34.697 36.487l-4.407-5.665a6.377 6.377 0 003.486-2.58c1.038-1.794.569-3.983.115-6.098a16.648 16.648 0 01-.49-3.316c.05-1.12.215-2.233.49-3.32.451-2.116.923-4.303-.115-6.094-1.074-1.857-3.238-2.544-5.33-3.207a15.51 15.51 0 01-3.01-1.18c-.872-.564-1.68-1.22-2.413-1.954C21.47 1.63 19.71 0 17.47 0c-2.24 0-4.001 1.631-5.555 3.072a14.71 14.71 0 01-2.41 1.956c-.96.495-1.97.89-3.01 1.176-2.093.663-4.257 1.35-5.332 3.207-1.037 1.794-.568 3.983-.114 6.097.275 1.087.439 2.2.49 3.32a16.649 16.649 0 01-.49 3.319c-.452 2.116-.924 4.304.114 6.094a6.378 6.378 0 003.49 2.58l-4.41 5.665a.724.724 0 00.661 1.163l5.178-.646 1.278 4.472a.724.724 0 001.268.245l4.624-5.948a6.696 6.696 0 004.218 1.883 6.696 6.696 0 004.217-1.883l4.624 5.946a.724.724 0 001.268-.243l1.278-4.472 5.178.647a.724.724 0 00.662-1.163zM8.36 39.705l-1.057-3.697a.724.724 0 00-.785-.52l-4.055.507 3.634-4.672.4.128c1.04.287 2.048.68 3.007 1.176.87.565 1.68 1.22 2.412 1.956l.25.23-3.806 4.892zm9.11-3.498c-1.673 0-3.08-1.304-4.57-2.685a15.96 15.96 0 00-2.672-2.149 16.792 16.792 0 00-3.297-1.303c-1.914-.608-3.722-1.181-4.516-2.553-.757-1.31-.366-3.135.049-5.069.299-1.185.474-2.399.523-3.62a17.727 17.727 0 00-.522-3.621c-.415-1.933-.806-3.758-.049-5.07.797-1.37 2.602-1.944 4.516-2.552a16.795 16.795 0 003.296-1.303 15.963 15.963 0 002.67-2.149c1.492-1.381 2.899-2.685 4.572-2.685 1.672 0 3.08 1.304 4.57 2.685.81.81 1.706 1.53 2.671 2.149 1.05.55 2.155.986 3.297 1.303 1.914.608 3.722 1.181 4.516 2.553.757 1.31.366 3.135-.049 5.069a17.737 17.737 0 00-.523 3.62c.049 1.222.224 2.436.522 3.621.415 1.933.806 3.759.049 5.07-.797 1.37-2.602 1.944-4.516 2.552a16.79 16.79 0 00-3.296 1.303 15.955 15.955 0 00-2.67 2.149c-1.492 1.381-2.899 2.685-4.571 2.685zm10.955-.718a.724.724 0 00-.786.519l-1.06 3.697-3.804-4.891.249-.23c.732-.736 1.54-1.391 2.411-1.957a15.5 15.5 0 013.01-1.176l.4-.128 3.635 4.672-4.055-.506z"
      fill="#000" />
    <path
      d="M17.47 5.793c-7.199 0-13.034 5.836-13.034 13.035 0 7.198 5.835 13.034 13.034 13.034 7.199 0 13.035-5.836 13.035-13.034-.009-7.196-5.84-13.026-13.035-13.035zm0 24.62c-6.399 0-11.586-5.187-11.586-11.585 0-6.4 5.187-11.587 11.586-11.587s11.586 5.188 11.586 11.587c-.007 6.395-5.19 11.578-11.586 11.586z"
      fill="#000" />
    <path
      d="M25.825 15.803a1.448 1.448 0 00-1.17-.596h-4.433l-1.376-4.22a1.448 1.448 0 00-2.752 0l-1.372 4.22h-4.437a1.448 1.448 0 00-.853 2.619l3.589 2.607-1.371 4.22a1.448 1.448 0 002.229 1.619l3.59-2.606 3.59 2.606a1.428 1.428 0 001.704 0 1.427 1.427 0 00.525-1.619l-1.37-4.22 3.588-2.607c.647-.47.79-1.377.319-2.023zM20.64 19.57a.724.724 0 00-.263.81l1.534 4.72-4.015-2.916a.724.724 0 00-.851 0L13.029 25.1l1.533-4.72a.724.724 0 00-.262-.81l-4.015-2.916h4.963a.724.724 0 00.688-.5l1.534-4.72 1.534 4.719c.096.298.374.5.688.5l4.963.001-4.015 2.916z"
      fill="#E10303" />
  </g>
  <defs>
    <clipPath id="prefix__clip0">
      <path fill="#fff" d="M0 0h34.94v42H0z" />
    </clipPath>
  </defs>
</svg>
